X:1
T:“Peace, Be Still”
T:“Peace, Be Still”
T:Anthony Johnson Showalter
T:Mrs. J. M. Hunter, 1904
T:Public Domain Courtesy of the Cyber Hymnal™
T:Public Domain Courtesy of the Cyber Hymnal™
C:Anthony Johnson Showalter
Z:Public Domain
Z:Courtesy of the Cyber Hymnal™
%%score ( 1 2 ) ( 3 4 )
L:1/8
Q:1/4=90
M:4/4
K:C
V:1 treble 
V:2 treble 
V:3 bass 
V:4 bass 
V:1
 [CE][DF] | [EG][EG][EG][EG] [EG][EG][Ec][GB] | [GB][FA][FA][CF] [FA]2 [B,D][CE] | %3
w: 1.~’Mid the|bil- lows of temp- ta- tion, on the|rest- less seas of life, When the|
w: 2.~O how|sweet the ten- der pi- ty of our|hu- man- heart- ed Lord! At His|
w: 3.~Tem- pest|tossed, yet worn and wea- ry, ye who|pine in sore dis- tress, Yield in|
 [DF][DF][DF][DF] [FB][FB][FA][FB] | (A4 G2) [CE][DF] | [EG][EG][EG][EG] [EG][EG][Ec][GB] | %6
w: threat- ening waves with dread our spir- its|fill, * If we|on- ly look to Je- sus, o- ver|
w: word our souls with love and glad- ness|thrill! * He can|un- der- stand each tri- al, He will|
w: full sur- ren- der to His ho- ly|will; * He will|save, and guide and keep you, He will|
 [GB][FA][FA][CF] [FA]2 [Dd][Dc] | [DB][DB][DB][DB] [DB][DG][FA][FB] | [Ec]6 z2 || %9
w: all the din and strife, We can|hear Him calm- ly say- ing, “Peace, be|still.”|
w: rea- dy help af- ford, On- ly|hear Him calm- ly say- ing, “Peace, be|still.”|
w: ev- er cheer and bless, You shall|hear Him sweet- ly say- ing, “Peace, be|still.”|
"^Refrain" [EG]3 [CE] [EG]2 z2 |!mp! [FA]3 [CF] [FA]2!mf! [Dd][Dc] | %11
w: ||
w: “Peace, be still,|peace, be still, Peace, be|
w: ||
 [DB][DB][DB][DB] [DB]!p![DG][FA][FB] | (A4 G2)!mf! [CE][DF] | [EG][EG][EG][FA] [EG]2!f! [Ec][Ge] | %14
w: |||
w: still” the Sav- ior whis- pers, “peace, be|still”; * He will|let no ill be- tide, at His|
w: |||
 [Ge][Fd][Fd][FA] | !fermata![Fd]2!mf! [Dd][Dc] | [DB][DB][DB][DB] [DB][DG]!p![FA][FB] | [Ec]6 z2 | %18
w: ||||
w: word the storms sub-|side, “Peace, be|still,” the Sav- ior whis- pers, “peace, be|still.|
w: ||||
!pp! [EG]3 [CE] [EG]2 z2 |!p! [FA]3 [CF] [FA]2 z2 |!pp! G6 [FG]2 | [EG]6 |] %22
w: ||||
w: Peace, be still,|peace, be still,|peace, be|still.”|
w: ||||
V:2
 x2 | x8 | x8 | x8 | E6 x2 | x8 | x8 | x8 | x8 || x8 | x8 | x8 | E6 x2 | x8 | x4 | x4 | x8 | x8 | %18
 x8 | x8 | (D4 E2) x2 | x6 |] %22
V:3
 [C,G,][C,G,] | [C,C][C,C][C,C][C,C] [C,C][C,C][C,G,][E,C] | %2
 [F,C][F,C][F,C][F,A,] [F,C]2 [F,G,][E,G,] | [D,B,][D,B,][D,B,][D,B,] [G,,D][G,,D][G,,D][G,,D] | %4
 [C,C]6 [C,G,][C,G,] | [C,C][C,C][C,C][C,C] [C,C][C,C][C,G,][E,C] | %6
 [F,C][F,C][F,C][F,A,] [F,C]2 [^F,A,][F,A,] | G,G,G,G, G,[G,B,][G,D][G,D] | [C,C]6 z2 || %9
 [C,C]3 [C,G,] [C,C]2 z2 | [F,C]3 [F,A,] [F,C]2 [^F,A,][F,A,] | G,G,G,G, G,[G,B,][G,D][G,D] | %12
 [C,C]6 [C,G,][C,G,] | [C,C][C,C][C,C][C,C] [C,C]2 [C,G,][C,_B,] | [F,A,][F,A,][F,A,][F,D] | %15
 !fermata![F,A,]2 [^F,A,][F,A,] | G,G,G,G, G,[G,B,][G,D][G,D] | [C,C]6 z2 | %18
 [C,C]3 [C,G,] [C,C]2 z2 | [F,C]3 [F,A,] [F,C]2 z2 | (B,4 C2) [G,D]2 | [C,C]6 |] %22
V:4
 x2 | x8 | x8 | x8 | x8 | x8 | x8 | G,G,G,G, G, x3 | x8 || x8 | x8 | G,G,G,G, G, x3 | x8 | x8 | %14
 x4 | x4 | G,G,G,G, G, x3 | x8 | x8 | x8 | G,6 x2 | x6 |] %22

